propusk-quiz/img/icons/viber.svg

<svg width="20" height="19" viewBox="0 0 20 19" fill="none" xmlns="http://www.w3.org/2000/svg">
<path d="M18.0181 14.5151L14.1497 12.0025C13.7267 11.7274 13.2232 11.6343 12.7304 11.7362C12.2369 11.8401 11.8127 12.1315 11.5376 12.5564L11.3557 12.8358C9.68146 12.2826 7.83538 11.5757 6.73013 8.37642L7.18771 7.97863C7.97322 7.29571 8.05568 6.10108 7.37276 5.31431L4.34653 1.83301C4.11868 1.57054 3.72089 1.54348 3.45842 1.7707L1.55821 3.42228C-0.108482 4.8712 0.670106 7.01436 0.926279 7.71868C0.937608 7.75015 0.951455 7.78036 0.96782 7.80995C1.03391 7.92828 2.61186 10.7443 5.16036 13.34C7.71894 15.9464 12.3382 18.3533 12.4798 18.4232C13.0073 18.7656 13.6008 18.9298 14.1881 18.9298C15.2191 18.9298 16.2299 18.4244 16.8329 17.4979L18.2038 15.3869C18.3926 15.0942 18.3095 14.7046 18.0181 14.5151ZM15.7767 16.8119C15.2096 17.6855 14.0377 17.9335 13.1124 17.3368C13.0665 17.3129 8.47739 14.923 6.05854 12.4588C3.79768 10.1558 2.29652 7.5972 2.09196 7.24032C1.59346 5.84239 1.68158 4.98324 2.38401 4.3727L3.80963 3.13401L6.42297 6.1401C6.65523 6.40698 6.62816 6.79721 6.36255 7.02821L5.59025 7.69917C5.40206 7.86282 5.32779 8.12151 5.40143 8.35943C6.71817 12.6382 9.27863 13.4785 11.148 14.0921L11.4205 14.1822C11.6931 14.2741 11.9914 14.1689 12.1475 13.9285L12.5938 13.2412C12.6857 13.0989 12.8267 13.0026 12.9903 12.968C13.1546 12.9328 13.322 12.9655 13.4643 13.058L16.8052 15.2276L15.7767 16.8119Z" fill="white"/>
<path d="M11.1367 5.54881C10.8019 5.45251 10.4538 5.647 10.3588 5.98185C10.2637 6.31607 10.4576 6.66414 10.7918 6.75918C11.7296 7.02605 12.4767 7.77443 12.7411 8.71289C12.8191 8.98983 13.0715 9.17173 13.3466 9.17173C13.4032 9.17173 13.4605 9.16418 13.5178 9.14844C13.852 9.05403 14.0471 8.70659 13.9527 8.37175C13.5707 7.01598 12.4912 5.93402 11.1367 5.54881Z" fill="white"/>
<path d="M15.9266 9.30759C15.9832 9.30759 16.0405 9.30003 16.0978 9.2843C16.4326 9.18988 16.6271 8.84182 16.5327 8.5076C15.79 5.87475 13.6947 3.77502 11.0637 3.02601C10.7295 2.92971 10.3814 3.12546 10.2864 3.45968C10.1913 3.7939 10.3852 4.14197 10.7194 4.23701C12.9331 4.86642 14.6961 6.63445 15.3211 8.84937C15.3997 9.12631 15.6515 9.30759 15.9266 9.30759Z" fill="white"/>
<path d="M10.7923 0.0947073C10.4575 -0.0015934 10.1094 0.192896 10.0144 0.528375C9.91935 0.862595 10.1132 1.21066 10.4474 1.3057C14.1981 2.37257 17.186 5.36733 18.2446 9.12054C18.3227 9.39748 18.5751 9.57938 18.8501 9.57938C18.9068 9.57938 18.9641 9.57183 19.0213 9.55609C19.3556 9.46168 19.5507 9.11361 19.4563 8.77939C18.2799 4.60825 14.9603 1.28116 10.7923 0.0947073Z" fill="white"/>
</svg>

<svg width="20" height="19" fill="none" xmlns="http://www.w3.org/2000/svg"><path d="M18.018 14.515l-3.868-2.513a1.885 1.885 0 00-2.612.554l-.182.28c-1.675-.553-3.52-1.26-4.626-4.46l.458-.397a1.891 1.891 0 00.185-2.665L4.347 1.833a.63.63 0 00-.889-.062l-1.9 1.651C-.108 4.872.67 7.014.926 7.72a.626.626 0 00.042.09c.066.12 1.644 2.935 4.192 5.531 2.559 2.606 7.178 5.013 7.32 5.083a3.15 3.15 0 004.353-.925l1.37-2.111a.631.631 0 00-.185-.872zm-2.241 2.297c-.567.873-1.74 1.121-2.665.525-.046-.024-4.635-2.414-7.053-4.878-2.261-2.303-3.762-4.862-3.967-5.219-.499-1.398-.41-2.257.292-2.867L3.81 3.134 6.423 6.14a.623.623 0 01-.06.888L5.59 7.7a.629.629 0 00-.189.66c1.317 4.28 3.878 5.12 5.747 5.733l.273.09a.627.627 0 00.727-.254l.446-.687a.622.622 0 01.87-.183l3.341 2.17-1.028 1.584zm-4.64-11.263a.628.628 0 10-.345 1.21 2.848 2.848 0 011.95 1.954.63.63 0 001.21-.341 4.115 4.115 0 00-2.815-2.823z" fill="#fff"/><path d="M15.927 9.308a.63.63 0 00.606-.8 7.993 7.993 0 00-5.47-5.482.629.629 0 10-.344 1.211 6.725 6.725 0 014.602 4.612.63.63 0 00.606.459z" fill="#fff"/><path d="M10.792.095a.63.63 0 10-.345 1.211 11.394 11.394 0 017.798 7.815.63.63 0 001.211-.342C18.28 4.61 14.96 1.281 10.792.095z" fill="#fff"/></svg>
